X:1
T:The Rat Race
M:4/4
L:1/4
K:G
 z2 z B,| E F G B| G/2 F3/2 E B,| E/2 F3/2 G A| F3 B,| E/2 B3/2 A G|\
 F E ^D B,| E ^D B, D| E3 E| G F/2E/2 B, ^D| E3 z|
